assets/images/payments/westernunion.svg

<svg width="100" height="60" viewBox="0 0 100 60" version="1.1" xmlns="http://www.w3.org/2000/svg" xmlns:xlink="http://www.w3.org/1999/xlink"><title>WesternUnion-light</title><desc>Created with Sketch.</desc><g id="Light-Payment-badges" stroke="none" stroke-width="1" fill="none" fill-rule="evenodd" transform="translate(-610.000000, -489.000000)"><g id="WesternUnion-light" transform="translate(610.000000, 489.000000)"><rect id="Rectangle" fill="#FFF" x="0" y="0" width="100" height="60" rx="4"/><path d="M35.4618318,21.0046905 C33.1246537,21.0046905 31.7908761,21.9503998 31.7908715,23.6122377 C31.7908715,24.6424374 32.2220683,25.3882833 33.451544,25.7536312 L35.6949086,26.4091599 C35.9944124,26.4977291 36.2339035,26.6637963 36.2338988,26.9627174 C36.2338988,27.3175769 35.9274028,27.618246 35.4618318,27.618246 C35.1629107,27.618246 34.9723611,27.5110306 34.8500051,27.3560345 C34.7282224,27.1899673 34.6751974,26.9656308 34.6751974,26.7442078 L31.6451984,26.7442078 C31.6451984,28.8267494 33.4177385,29.4245915 35.3452933,29.4245915 C37.6049734,29.4245915 39.1910706,28.6029957 39.1910613,26.6422367 C39.1910613,25.6784639 38.756373,24.9652488 37.7488983,24.5445451 C36.9401217,24.2013394 35.8236882,23.978751 35.2141876,23.8016126 C34.8814704,23.7019723 34.6897647,23.5796069 34.6897647,23.291757 C34.6897647,23.047609 34.9082882,22.8256034 35.4181299,22.8256034 C35.8277624,22.8256034 36.1063032,22.9969148 36.1173604,23.4956993 L38.9579845,23.4956993 C38.9579845,21.6345807 37.4558042,21.0046905 35.4618318,21.0046905 L35.4618318,21.0046905 Z M79.1346057,21.0629597 L79.1346057,38.8205019 L80.1397496,38.8205019 L80.1397496,21.0629597 L79.1346057,21.0629597 L79.1346057,21.0629597 Z M89.2588811,21.1212289 C88.6680313,21.1212289 88.1808961,21.5996191 88.1809007,22.184642 C88.1809007,22.7754918 88.668036,23.2480551 89.2588811,23.2480551 C89.8468175,23.2480551 90.3222849,22.7754918 90.3222942,22.184642 C90.3222942,21.5996191 89.8468221,21.1212289 89.2588811,21.1212289 L89.2588811,21.1212289 Z M9.67770576,21.2232 L11.4112148,29.2206493 L14.8490983,29.2206493 L15.5920307,24.0346895 L15.606598,24.0346895 L16.3495305,29.2206493 L19.7874139,29.2206493 L21.520923,21.2232 L18.6802989,21.2232 L18.010203,26.2489195 L17.9810684,26.2489195 L17.2381359,21.2232 L13.9604928,21.2232 L13.2175603,26.2489195 L13.202993,26.2489195 L12.5183298,21.2232 L9.67770576,21.2232 L9.67770576,21.2232 Z M23.4583742,21.2232 L23.4583742,29.2206493 L29.6349106,29.2206493 L29.6349106,27.137525 L26.4883732,27.137525 L26.4883732,26.2343522 L29.2998627,26.2343522 L29.2998627,24.1512279 L26.4883732,24.1512279 L26.4883732,23.3063243 L29.5329395,23.3063243 L29.5329395,21.2232 L23.4583742,21.2232 L23.4583742,21.2232 Z M40.9974068,21.2232 L40.9974068,23.3645936 L42.97856,23.3645936 L42.97856,29.2206493 L46.1396647,29.2206493 L46.1396647,23.3645936 L48.1208179,23.3645936 L48.1208179,21.2232 L40.9974068,21.2232 L40.9974068,21.2232 Z M50.2622115,21.2232 L50.2622115,29.2206493 L56.4533152,29.2206493 L56.4533152,27.137525 L53.3067777,27.137525 L53.3067777,26.2343522 L56.1182672,26.2343522 L56.1182672,24.1512279 L53.3067777,24.1512279 L53.3067777,23.3063243 L56.351344,23.3063243 L56.351344,21.2232 L50.2622115,21.2232 L50.2622115,21.2232 Z M58.7986509,21.2232 L58.7986509,29.2206493 L61.9014864,29.2206493 L61.9014864,26.3654579 L62.265669,26.3654579 C62.7749419,26.3654579 62.9713091,26.520454 63.037736,26.9190155 C63.1484475,27.6060095 63.242853,28.6222245 63.4310532,29.2206493 L66.5338887,29.2206493 C66.1685408,28.0127285 66.2011622,26.8770616 66.0240331,26.1906503 C65.869037,25.5811544 65.4442405,25.237366 64.669274,25.1709391 L64.669274,25.1563718 C65.8655409,24.8679392 66.2571146,24.1675433 66.25711,23.2480551 C66.25711,21.7412133 65.2502227,21.2232 63.5330243,21.2232 L58.7986509,21.2232 L58.7986509,21.2232 Z M68.7481187,21.2232 L68.7481187,29.2206493 L71.311964,29.2206493 L71.311964,24.3406028 L71.3410987,24.3406028 L73.0309058,29.2206493 L76.8329718,29.2206493 L76.8329718,21.2232 L74.2545592,21.2232 L74.2545592,26.0595446 L74.2400152,26.0595446 L72.5502081,21.2232 L68.7481421,21.2232 L68.7481187,21.2232 Z M86.3017187,21.2232 L86.3017187,38.7913673 L87.3068626,38.7913673 L87.3068626,21.2232 L86.3017187,21.2232 L86.3017187,21.2232 Z M89.2588811,21.2523346 C89.7763117,21.2523346 90.1475006,21.6672114 90.1474866,22.184642 C90.1474866,22.7078995 89.7763164,23.1023821 89.2588811,23.1023821 C88.7385371,23.1023821 88.3556944,22.7078995 88.3557084,22.184642 C88.3557084,21.6672114 88.7385417,21.2523346 89.2588811,21.2523346 L89.2588811,21.2523346 Z M88.865564,21.5873826 L88.865564,22.7819014 L89.011237,22.7819014 L89.011237,22.2283439 L89.2734484,22.2283439 L89.6084964,22.7819014 L89.783304,22.7819014 L89.4336888,22.2283439 C89.6446233,22.222517 89.7978807,22.1415228 89.7978713,21.9078633 C89.7978713,21.711496 89.6906513,21.5873826 89.3754196,21.5873826 L88.865564,21.5873826 L88.865564,21.5873826 Z M89.011237,21.6893537 L89.346285,21.6893537 C89.4925407,21.6893537 89.6376263,21.7079999 89.637631,21.893296 C89.637631,22.1356959 89.3981446,22.1118055 89.2297465,22.1118055 L89.011237,22.1118055 L89.011237,21.6893537 L89.011237,21.6893537 Z M61.9014864,23.0441129 L62.1928325,23.0441129 C62.8133996,23.0441129 63.212539,23.1565725 63.2125437,23.7433434 C63.2125437,24.3417682 62.7731938,24.5591124 62.1636979,24.5591124 L61.9014864,24.5591124 L61.9014864,23.0441129 L61.9014864,23.0441129 Z M62.2219671,30.5754085 C59.4635026,30.5754085 58.0848531,32.2931848 58.0848531,34.785359 C58.0848531,37.2781158 59.4634933,38.9953095 62.2219671,38.9953095 C64.9804315,38.9953095 66.3445231,37.2781158 66.3445138,34.785359 C66.3445138,32.2931848 64.9804222,30.5754085 62.2219671,30.5754085 L62.2219671,30.5754085 Z M31.52866,30.7793507 L31.52866,36.0964162 C31.52866,38.0239617 32.9154812,38.9953095 35.330726,38.9953095 C37.7454022,38.9953095 39.1327921,38.0239617 39.1327921,36.0964162 L39.1327921,30.7793507 L35.9571201,30.7793507 L35.9571201,35.9653105 C35.9571201,36.5963661 35.6628745,36.8393487 35.330726,36.8393487 C34.9985915,36.8393487 34.7043367,36.5963661 34.704332,35.9653105 L34.704332,30.7793507 L31.52866,30.7793507 L31.52866,30.7793507 Z M41.7549066,30.7793507 L41.7549066,38.7768 L44.3333192,38.7768 L44.3333192,33.9113208 L44.3478865,33.9113208 L46.0376936,38.7768 L49.8397597,38.7768 L49.8397597,30.7793507 L47.2759144,30.7793507 L47.2759144,35.6302625 L47.2467798,35.6302625 L45.5569726,30.7793507 L41.7549066,30.7793507 L41.7549066,30.7793507 Z M52.5201434,30.7793507 L52.5201434,38.7768 L55.6958154,38.7768 L55.6958154,30.7793507 L52.5201434,30.7793507 L52.5201434,30.7793507 Z M68.7481187,30.7793507 L68.7481187,38.7768 L71.311964,38.7768 L71.311964,33.9113208 L71.3410987,33.9113208 L73.0309058,38.7768 L76.8329718,38.7768 L76.8329718,30.7793507 L74.2545592,30.7793507 L74.2545592,35.6302625 L74.2400152,35.6302625 L72.5502081,30.7793507 L68.7481421,30.7793507 L68.7481187,30.7793507 Z M62.2219671,32.6585328 C62.7318227,32.6585328 63.06688,32.9801788 63.0668706,34.785359 C63.0668706,36.6354064 62.7090884,36.9121805 62.2219671,36.9121852 C61.7348365,36.9121852 61.3624962,36.6354064 61.3624962,34.785359 C61.3624962,32.9801788 61.7126848,32.6585328 62.2219671,32.6585328 L62.2219671,32.6585328 Z" id="path6" fill="#000"/></g></g></svg>

<svg width="100" height="60" xmlns="http://www.w3.org/2000/svg"><g fill="none" fill-rule="evenodd"><rect fill="#FFF" width="100" height="60" rx="4"/><path d="M35.462 21.005c-2.337 0-3.671.945-3.671 2.607 0 1.03.431 1.776 1.66 2.142l2.244.655c.3.089.539.255.539.554 0 .355-.307.655-.772.655-.3 0-.49-.107-.612-.262-.122-.166-.175-.39-.175-.612h-3.03c0 2.083 1.773 2.68 3.7 2.68 2.26 0 3.846-.821 3.846-2.782 0-.964-.435-1.677-1.442-2.097-.809-.344-1.925-.566-2.535-.743-.333-.1-.524-.222-.524-.51 0-.244.218-.466.728-.466.41 0 .688.17.7.67h2.84c0-1.861-1.502-2.491-3.496-2.491zm43.673.058v17.758h1.005V21.063h-1.005zm10.124.058c-.591 0-1.078.479-1.078 1.064 0 .59.487 1.063 1.078 1.063a1.064 1.064 0 000-2.127zm-79.581.102l1.733 7.998h3.438l.743-5.186h.015l.743 5.186h3.437l1.734-7.998h-2.84l-.67 5.026h-.03l-.743-5.026H13.96l-.742 5.026h-.015l-.685-5.026h-2.84zm13.78 0v7.998h6.177v-2.083h-3.147v-.904H29.3v-2.083h-2.812v-.845h3.045v-2.083h-6.075zm17.54 0v2.142h1.98v5.856h3.162v-5.856h1.98v-2.142h-7.123zm9.264 0v7.998h6.191v-2.083h-3.146v-.904h2.811v-2.083h-2.811v-.845h3.044v-2.083h-6.089zm8.537 0v7.998H61.9v-2.856h.365c.509 0 .705.155.772.554.11.687.205 1.703.393 2.302h3.103c-.365-1.208-.333-2.344-.51-3.03-.155-.61-.58-.954-1.355-1.02v-.015c1.197-.288 1.588-.988 1.588-1.908 0-1.507-1.007-2.025-2.724-2.025h-4.734zm9.95 0v7.998h2.563v-4.88h.03l1.689 4.88h3.802v-7.998h-2.578v4.837h-.015l-1.69-4.837h-3.802zm17.553 0v17.568h1.005V21.223h-1.005zm2.957.03c.517 0 .889.414.888.932 0 .523-.37.917-.888.917-.52 0-.903-.394-.903-.917 0-.518.383-.933.903-.933zm-.393.334v1.195h.145v-.554h.262l.335.554h.175l-.35-.554c.212-.005.365-.086.365-.32 0-.197-.107-.32-.423-.32h-.51zm.145.102h.335c.147 0 .292.019.292.204 0 .243-.24.219-.408.219h-.219v-.423zm-27.11 1.355h.292c.62 0 1.02.113 1.02.7 0 .598-.44.815-1.05.815h-.262v-1.515zm.321 7.531c-2.758 0-4.137 1.718-4.137 4.21 0 2.493 1.378 4.21 4.137 4.21 2.758 0 4.123-1.717 4.123-4.21 0-2.492-1.365-4.21-4.123-4.21zm-30.693.204v5.317c0 1.928 1.386 2.9 3.802 2.9 2.414 0 3.802-.972 3.802-2.9V30.78h-3.176v5.186c0 .631-.294.874-.626.874s-.627-.243-.627-.874V30.78H31.53zm10.226 0v7.998h2.578V33.91h.015l1.69 4.866h3.802v-7.998h-2.564v4.851h-.03l-1.689-4.85h-3.802zm10.765 0v7.998h3.176v-7.998H52.52zm16.228 0v7.998h2.564V33.91h.03l1.689 4.866h3.802v-7.998h-2.578v4.851h-.015l-1.69-4.85h-3.802zm-6.526 1.88c.51 0 .845.321.845 2.126 0 1.85-.358 2.127-.845 2.127s-.86-.277-.86-2.127c0-1.805.35-2.126.86-2.126z" fill="#000"/></g></svg>
